lib/logo_updates/nrk-logo-nrk-p3-x-on-light.svg

<svg width="256" height="48" viewBox="0 0 256 48" fill="none" xmlns="http://www.w3.org/2000/svg">
<path d="M256 45L241.5 23.092L254.747 3H248.12L238.497 18.9935L227.939 3H220.657L234.262 23.3838L220 44.999H226.746L237.364 27.7376L248.776 44.999L256 45Z" fill="black"/>
<path d="M162.166 3.01758H149.212C149.212 3.01758 156.573 15.1015 156.656 15.2536C156.933 15.6031 157.088 16.034 157.097 16.4801C157.106 16.9262 156.968 17.3627 156.704 17.7228L149.212 30.0043H162.168C162.168 30.0043 168.416 19.788 169.27 18.3697C169.675 17.8264 169.892 17.1651 169.885 16.4873C169.879 15.8095 169.651 15.1523 169.236 14.6166C168.314 13.0472 168.312 13.0482 162.166 3.01758Z" fill="black"/>
<path d="M147.538 3.01772H136V44.9941H147.538V3.01772Z" fill="black"/>
<path d="M202.743 9.97168C202.307 9.22896 198.451 3.01758 198.451 3.01758H170.722L176.779 13.1776H191.385L185.36 23.0542L192.076 34.3381L185.594 44.991H197.432C199.335 41.8779 202.181 37.0621 202.775 36.0754C203.183 35.5301 203.401 34.866 203.394 34.1851C203.388 33.5043 203.158 32.8443 202.741 32.3065C202.148 31.2951 198.978 26.267 197.083 23.1717C197.083 23.1717 202.181 14.7252 202.775 13.7386C203.183 13.1936 203.4 12.5301 203.394 11.8496C203.389 11.1692 203.16 10.5095 202.743 9.97168Z" fill="black"/>
<path d="M176.07 24.4181C174.245 27.3989 171.193 32.3944 170.621 33.3683C170.219 33.8862 169.997 34.522 169.991 35.1779C169.985 35.8338 170.195 36.4735 170.588 36.9989C171.16 37.949 174.236 42.9841 176.07 45.9866C177.903 42.9871 180.98 37.952 181.552 36.9989C181.944 36.4735 182.154 35.8339 182.148 35.1781C182.142 34.5222 181.921 33.8865 181.519 33.3683C180.947 32.3944 177.894 27.3989 176.07 24.4181Z" fill="black"/>
<path d="M0 45V3.00381H13.7802V45H0ZM32.5283 9.68773L40.4532 45H25.3721L15.9092 3.00381H24.3676C26.3072 2.97864 28.1892 3.66237 29.6607 4.92636C31.1347 6.13734 32.1473 7.81844 32.5283 9.68773ZM42.5233 45V3.00381H56.3035V45H42.5233ZM66.7116 18.9743C65.2267 18.9888 63.7656 18.6003 62.4839 17.8504C61.2193 17.1194 60.1688 16.0689 59.438 14.8041C58.6872 13.5222 58.2986 12.0607 58.3134 10.5751C58.2964 9.09861 58.6853 7.64583 59.438 6.3755C60.1766 5.12447 61.2259 4.08533 62.4839 3.35882C63.766 2.60976 65.2269 2.2213 66.7116 2.23484C68.1877 2.21895 69.6399 2.60775 70.9108 3.35882C72.1562 4.09169 73.1943 5.12996 73.9271 6.3755C74.6789 7.64618 75.0677 9.09873 75.0517 10.5751C75.0655 12.0605 74.6769 13.5218 73.9271 14.8041C73.202 16.0633 72.1627 17.113 70.9108 17.8504C69.6398 18.6029 68.1866 18.9918 66.7097 18.9743H66.7116ZM77.1807 45V3.00381H90.9621V45H77.1807ZM108.408 25.9538C108.447 25.9946 108.742 26.4776 109.295 27.403C109.848 28.3283 110.567 29.5114 111.454 30.952C112.341 32.392 113.277 33.9199 114.262 35.536C115.247 37.1521 116.174 38.6803 117.043 40.1202C117.908 41.5602 118.894 43.1867 120 45H104.859C103.912 43.4621 103.055 42.0721 102.286 40.83C101.517 39.5878 100.7 38.2471 99.8334 36.8077C98.9653 35.3698 98.1071 33.9699 97.2587 32.6081C96.4103 31.2464 95.6813 30.0536 95.0714 29.0297C94.459 28.0051 94.0348 27.3149 93.7989 26.9594C93.2139 26.0771 92.8677 25.058 92.7944 24.0019C92.853 22.9883 93.1791 22.0084 93.7397 21.1619C93.9762 20.7676 94.41 20.0675 95.0409 19.062C95.6717 18.0564 96.411 16.8637 97.2587 15.4835C98.1064 14.1034 98.9647 12.6936 99.8334 11.2543C100.702 9.81501 101.519 8.46432 102.286 7.20247C103.056 5.94193 103.914 4.54205 104.859 3.00285H120L108.289 22.1082C107.926 22.6755 107.722 23.3292 107.697 24.0019C107.736 24.7081 107.983 25.3871 108.406 25.9538H108.408Z" fill="black"/>
</svg>

<svg xmlns="http://www.w3.org/2000/svg" viewBox="0 0 256 48"><path fill="#000" d="m256 45-14.5-21.908L254.747 3h-6.627l-9.623 15.994L227.939 3h-7.282l13.605 20.384L220 44.999h6.746l10.618-17.261 11.412 17.261L256 45ZM162.166 3.018h-12.954s7.361 12.083 7.444 12.236a2.041 2.041 0 0 1 .048 2.469l-7.492 12.281h12.956s6.248-10.216 7.102-11.634a3.097 3.097 0 0 0-.034-3.753c-.922-1.57-.924-1.569-7.07-11.6ZM147.538 3.018H136v41.976h11.538V3.018ZM202.743 9.972c-.436-.743-4.292-6.954-4.292-6.954h-27.729l6.057 10.16h14.606l-6.025 9.876 6.716 11.284-6.482 10.653h11.838c1.903-3.113 4.749-7.929 5.343-8.916a3.112 3.112 0 0 0-.034-3.769c-.593-1.01-3.763-6.039-5.658-9.134l5.692-9.433a3.105 3.105 0 0 0-.032-3.767Z"/><path fill="#000" d="M176.07 24.418c-1.825 2.98-4.877 7.976-5.449 8.95a2.997 2.997 0 0 0-.033 3.63c.572.951 3.648 5.986 5.482 8.989 1.833-3 4.91-8.035 5.482-8.988a3 3 0 0 0-.033-3.63c-.572-.975-3.625-5.97-5.449-8.95ZM0 45V3.004h13.78V45H0ZM32.528 9.688 40.453 45h-15.08L15.908 3.004h8.459a7.965 7.965 0 0 1 5.293 1.922 8.31 8.31 0 0 1 2.867 4.762ZM42.523 45V3.004h13.78V45h-13.78Zm24.189-26.026a8.213 8.213 0 0 1-4.228-1.124 8.336 8.336 0 0 1-3.046-3.046 8.206 8.206 0 0 1-1.125-4.229 8.056 8.056 0 0 1 1.125-4.2 8.437 8.437 0 0 1 3.046-3.016 8.232 8.232 0 0 1 4.228-1.124 8.083 8.083 0 0 1 4.199 1.124 8.503 8.503 0 0 1 3.016 3.016 8.075 8.075 0 0 1 1.125 4.2 8.226 8.226 0 0 1-1.125 4.23 8.4 8.4 0 0 1-3.016 3.045 8.059 8.059 0 0 1-4.201 1.124h.002ZM77.18 45V3.004h13.781V45H77.181Zm31.227-19.046c.039.04.334.524.887 1.449.553.925 1.272 2.108 2.159 3.549a1143.28 1143.28 0 0 1 5.589 9.168A854.89 854.89 0 0 0 120 45h-15.141c-.947-1.538-1.804-2.928-2.573-4.17a382.214 382.214 0 0 1-2.453-4.022 351.934 351.934 0 0 0-2.574-4.2 213.445 213.445 0 0 1-2.188-3.578 62.753 62.753 0 0 0-1.272-2.07 6.119 6.119 0 0 1-1.005-2.958 5.744 5.744 0 0 1 .946-2.84c.236-.394.67-1.095 1.3-2.1.632-1.006 1.371-2.198 2.219-3.579a636.03 636.03 0 0 0 2.574-4.229c.869-1.439 1.686-2.79 2.453-4.052.77-1.26 1.628-2.66 2.573-4.2H120l-11.711 19.106a3.773 3.773 0 0 0-.592 1.894c.039.706.286 1.385.709 1.952h.002Z"/></svg>
